packages/appstore/src/assets/svgs/wallet/tether-light.svg

<svg width="128" height="80" viewBox="0 0 128 80" fill="none" xmlns="http://www.w3.org/2000/svg">
<path d="M37.5616 27.5625L42.6087 38.5802L28.3051 52.9862L14 38.5787L19.0486 27.5625H37.5631H37.5616ZM34.449 31.8503H21.9669V34.9267H26.5499V36.9455C22.8241 37.1173 20.0218 37.8585 20.0218 38.7504C20.0218 39.6408 22.8256 40.3836 26.5499 40.5584V47.0246H29.8644V40.5584C33.5857 40.3851 36.3819 39.6423 36.3819 38.752C36.3819 37.8631 33.5857 37.1188 29.8644 36.9471L29.8629 36.944V34.9267H34.4475V31.8503H34.449ZM26.5499 37.1761V39.4314C26.7638 39.4465 27.3815 39.4842 28.2343 39.4842C29.2588 39.4842 29.7695 39.439 29.8644 39.4314V37.1776C33.1518 37.3267 35.6015 37.9022 35.6015 38.5938C35.6015 39.2823 33.1488 39.8593 29.8644 40.0069V40.0039C29.7785 40.01 29.3672 40.0341 28.4738 40.0371H28.2177C27.362 40.0371 26.7623 40.0145 26.5499 40.0039V40.0054C23.2565 39.8593 20.8008 39.2823 20.8008 38.5892C20.8008 37.9007 23.258 37.3222 26.5499 37.1761Z" fill="#1DB193"/>
<path d="M53.3677 32.6902V35.9534H56.5149V38.4017H53.3451V43.3644C53.3451 44.4597 53.9462 44.996 54.826 44.996C55.266 44.996 55.7752 44.8559 56.191 44.6465L56.979 47.0691C56.1699 47.3945 55.498 47.5346 54.6407 47.5587C52.1654 47.6521 50.5458 46.2314 50.5458 43.3644V38.4002H48.417V35.9519H50.5458V32.9945L53.3661 32.6902H53.3677ZM107.638 35.7998L107.846 37.1256C108.726 35.7049 109.906 35.4954 111.063 35.4954C112.242 35.4954 113.377 35.9625 114 36.5892L112.727 39.06C112.149 38.5704 111.618 38.3128 110.693 38.3128C109.211 38.3128 107.846 39.1052 107.846 41.225V47.2845H105.023V35.7953L107.638 35.7998ZM100.72 40.202C100.535 38.7105 99.3774 37.9632 97.7579 37.9632C96.2317 37.9632 94.9812 38.7105 94.5639 40.202H100.72ZM94.5187 42.5553C94.704 43.9776 95.9304 45.0035 97.9206 45.0035C98.9601 45.0035 100.327 44.6058 100.976 43.9308L102.779 45.7252C101.576 46.9832 99.6094 47.5904 97.8723 47.5904C93.9401 47.5904 91.6004 45.1437 91.6004 41.4615C91.6004 37.9663 93.9613 35.4487 97.6645 35.4487C101.482 35.4487 103.867 37.8261 103.427 42.5553H94.5187ZM82.0712 30.9727V37.3576C83.0897 36.0288 84.3386 35.6325 85.6343 35.6325C88.8735 35.6325 90.3093 37.8472 90.3093 41.2265V47.2845H87.4859V41.2521C87.4859 39.1534 86.3982 38.2691 84.8946 38.2691C83.2268 38.2691 82.0712 39.6898 82.0712 41.4148V47.289H79.2479V30.9757L82.0712 30.9742V30.9727ZM74.5744 32.5576V35.8194H77.7217V38.2676H74.5518V43.2303C74.5518 44.3271 75.1545 44.8619 76.0328 44.8619C76.4727 44.8619 76.982 44.7218 77.3993 44.5124L78.1857 46.935C77.3767 47.2604 76.7047 47.402 75.849 47.4246C73.3722 47.518 71.7526 46.0943 71.7526 43.2303V38.2691H69.6238V35.8209H71.7526V32.8649L74.5744 32.5606V32.5576ZM66.7763 40.2035C66.591 38.712 65.4339 37.9647 63.8144 37.9647C62.2882 37.9647 61.0362 38.712 60.6204 40.2035H66.7763ZM60.5752 42.5568C60.759 43.9791 61.9869 45.005 63.9771 45.005C65.0166 45.005 66.3831 44.6073 67.0309 43.9324L68.8358 45.7267C67.6305 46.9847 65.666 47.5919 63.9289 47.5919C59.9936 47.5919 57.6569 45.1452 57.6569 41.4631C57.6569 37.9678 60.0177 35.4502 63.7194 35.4502C67.5371 35.4502 69.9191 37.8276 69.4806 42.5568H60.5752Z" fill="#5B5A5D"/>
</svg>

<svg width="128" height="80" fill="none" xmlns="http://www.w3.org/2000/svg"><path d="m37.562 27.563 5.047 11.017-14.304 14.406L14 38.58l5.049-11.017h18.514-.001zm-3.113 4.287H21.967v3.077h4.583v2.019c-3.726.171-6.528.913-6.528 1.804 0 .89 2.804 1.634 6.528 1.808v6.467h3.314v-6.467c3.722-.173 6.518-.916 6.518-1.806 0-.889-2.796-1.633-6.518-1.805l-.001-.003v-2.017h4.584V31.85h.002zm-7.9 5.326v2.255c.215.016.832.053 1.685.053 1.025 0 1.535-.045 1.63-.053v-2.253c3.288.149 5.738.724 5.738 1.416 0 .688-2.453 1.265-5.738 1.413v-.003c-.085.006-.497.03-1.39.033h-.256a36.33 36.33 0 0 1-1.668-.033v.001c-3.294-.146-5.75-.723-5.75-1.416 0-.688 2.458-1.267 5.75-1.413z" fill="#1DB193"/><path d="M53.368 32.69v3.263h3.147v2.449h-3.17v4.962c0 1.096.601 1.632 1.481 1.632.44 0 .95-.14 1.365-.35l.788 2.423a6.299 6.299 0 0 1-2.338.49c-2.476.093-4.095-1.328-4.095-4.195V38.4h-2.129v-2.448h2.129v-2.957l2.82-.305h.002zm54.27 3.11.208 1.326c.88-1.421 2.06-1.63 3.217-1.63 1.179 0 2.314.466 2.937 1.093l-1.273 2.471c-.578-.49-1.109-.747-2.034-.747-1.482 0-2.847.792-2.847 2.912v6.06h-2.823v-11.49l2.615.005zm-6.918 4.402c-.185-1.491-1.343-2.239-2.962-2.239-1.526 0-2.777.748-3.194 2.239h6.156zm-6.201 2.353c.185 1.423 1.411 2.449 3.402 2.449 1.04 0 2.406-.398 3.055-1.073l1.803 1.794c-1.203 1.258-3.17 1.865-4.907 1.865-3.932 0-6.272-2.446-6.272-6.129 0-3.495 2.361-6.012 6.065-6.012 3.817 0 6.202 2.377 5.762 7.106h-8.908zM82.07 30.973v6.385c1.019-1.33 2.268-1.725 3.563-1.725 3.24 0 4.675 2.214 4.675 5.593v6.059h-2.823v-6.033c0-2.099-1.088-2.983-2.591-2.983-1.668 0-2.824 1.42-2.824 3.146v5.874h-2.823V30.976l2.823-.002v-.001zm-7.497 1.585v3.261h3.148v2.449h-3.17v4.962c0 1.097.602 1.632 1.48 1.632.44 0 .95-.14 1.367-.35l.787 2.423a6.267 6.267 0 0 1-2.337.49c-2.477.093-4.096-1.33-4.096-4.195v-4.96h-2.13v-2.45h2.13v-2.955l2.821-.304v-.003zm-7.798 7.645c-.185-1.491-1.342-2.238-2.962-2.238-1.526 0-2.778.747-3.194 2.238h6.156zm-6.2 2.354c.183 1.422 1.41 2.448 3.401 2.448 1.04 0 2.406-.398 3.054-1.073l1.805 1.795c-1.206 1.258-3.17 1.865-4.907 1.865-3.935 0-6.272-2.447-6.272-6.129 0-3.495 2.36-6.013 6.062-6.013 3.818 0 6.2 2.378 5.762 7.107h-8.906z" fill="#5B5A5D"/></svg>
